X: 1
T: One Night Fling, The
M: 4/4
L: 1/8
R: reel
K: Dmaj
E|DA,DE F2FA|GFGA B<EEF|DA,DE F2FB|AEGF D2D:|
c|dB (3BBB fBdB|ADFD E2Bc|dB (3BBB fBdc|AEGF D2Dc|
dB (3BBB fBdB|ADFD E2de|(3fgf ec dfdc|AEGF D2D||
